src/assets/icons/Blockeduser-White.svg

<svg width="24" height="24" viewBox="0 0 24 24" fill="none" xmlns="http://www.w3.org/2000/svg">
<g id="Blockeduser-White">
<g id="Group">
<path id="Vector" d="M15 12C17.21 12 19 10.21 19 8C19 5.79 17.21 4 15 4C12.79 4 11 5.79 11 8C11 10.21 12.79 12 15 12ZM15 14C12.33 14 7 15.34 7 18V20H23V18C23 15.34 17.67 14 15 14Z" fill="white"/>
<path id="Vector_2" d="M8 8V7C8 5.34 6.66 4 5 4C3.34 4 2 5.34 2 7V8H1V13H9V8H8ZM3.5 7C3.5 6.17 4.17 5.5 5 5.5C5.83 5.5 6.5 6.17 6.5 7V8H3.5V7Z" fill="white"/>
</g>
</g>
</svg>

<?xml version="1.0" encoding="utf-8"?>
<!-- Generator: Adobe Illustrator 21.0.0, SVG Export Plug-In . SVG Version: 6.00 Build 0)  -->
<svg version="1.1" id="Layer_1" xmlns="http://www.w3.org/2000/svg" xmlns:xlink="http://www.w3.org/1999/xlink" x="0px" y="0px"
	 viewBox="0 0 24 24" style="enable-background:new 0 0 24 24;" xml:space="preserve">
<style type="text/css">
	.st0{fill:#FFFFFF;}
</style>
<path class="st0" d="M15,12c2.2,0,4-1.8,4-4s-1.8-4-4-4s-4,1.8-4,4S12.8,12,15,12z M15,14c-2.7,0-8,1.3-8,4v2h16v-2
	C23,15.3,17.7,14,15,14z"/>
<path class="st0" d="M8,8V7c0-1.7-1.3-3-3-3S2,5.3,2,7v1H1v5h8V8H8z M3.5,7c0-0.8,0.7-1.5,1.5-1.5S6.5,6.2,6.5,7v1h-3V7z"/>
</svg>
